ОкеанВКонцеДороги/svg/ch1/balloon2.svg

<svg width="142" height="461" viewBox="0 0 142 461" fill="none" xmlns="http://www.w3.org/2000/svg">
<g opacity="0.21">
<path d="M71.9826 190.023C74.8692 198.358 78.3488 212.527 79.363 227.835C80.3789 243.168 78.9082 259.461 72.0696 272.175C63.3235 288.435 54.1245 305.281 48.9661 320.934C43.8148 336.566 42.569 351.364 50.2066 363.328C65.0132 386.521 93.5417 417.969 72.0575 459.78L74.6834 460.996C97.028 417.511 67.1181 384.466 52.7055 361.891C45.7336 350.97 46.6791 337.163 51.7546 321.762C56.823 306.382 65.8867 289.769 74.6719 273.436C81.8584 260.075 83.3086 243.197 82.2792 227.66C81.2481 212.097 77.7155 197.695 74.7583 189.156L71.9826 190.023Z" fill="#C4CDDE"/>
<path d="M138.955 59.4771C153.856 134.649 105.475 172.858 83.0736 186.034C85.2653 190.888 88.9172 191.582 90.7434 193.662C89.8668 195.881 83.8039 197.361 80.882 197.823C78.8123 196.436 73.285 194.494 67.7333 197.823C62.1817 201.151 58.8458 196.436 57.8719 193.662C59.9416 192.391 64.8114 189.085 67.7333 186.034C15.869 165.232 -8.60205 110.796 2.72038 54.2783C14.0428 -2.23913 120.327 -34.4874 138.955 59.4771Z" fill="#C4CDDE"/>
</g>
</svg>

<svg xmlns="http://www.w3.org/2000/svg" width="142" height="461" fill="none" viewBox="0 0 142 461"><g fill="#c4cdde" opacity=".21"><path d="M71.983 190.023c2.886 8.335 6.366 22.504 7.38 37.812 1.016 15.333-.455 31.626-7.293 44.34-8.746 16.26-17.945 33.106-23.104 48.759-5.151 15.632-6.397 30.43 1.24 42.394 14.807 23.193 43.336 54.641 21.852 96.452l2.625 1.216c22.345-43.485-7.565-76.53-21.978-99.105-6.971-10.921-6.026-24.728-.95-40.129 5.068-15.38 14.132-31.993 22.917-48.326 7.186-13.361 8.637-30.239 7.607-45.776-1.03-15.563-4.563-29.965-7.52-38.504z"/><path d="M138.955 59.477c14.901 75.172-33.48 113.381-55.881 126.557 2.191 4.854 5.843 5.548 7.67 7.628-.877 2.219-6.94 3.699-9.862 4.161-2.07-1.387-7.597-3.329-13.149 0-5.551 3.328-8.887-1.387-9.861-4.161 2.07-1.271 6.94-4.577 9.861-7.628C15.87 165.232-8.602 110.796 2.72 54.278c11.323-56.517 117.607-88.765 136.235 5.2"/></g></svg>
